!!!!SEGMENT: pl-wn--sd-xvi-qu-273--074_gomolka-mikolaj--melodiae-na-psalterz-polski-lxxiv-takze-nas-juz-na-wieki-boze-nasz-opuscisz.krn
!!!cenid: 15xx:279
!!!COM: Gomółka, Mikołaj
!!!COM-rismID: pe30013343
!!!CDT: ~1535->1591/04/30
!!!CNT: Polish
!!!GTL: Melodiae na psalterz polski
!!!OTL: LXXIV. Także nas już na wieki, Boże nasz, opuścisz
!!!OMV: 074
!!!ONB: PSALM LXXIIII. Ut quid Deus repulisti in finem: ir atus est furor eius,
!!!PDT: 1580
!!!AGN: Sacred
!!!SMS-siglum: PL-Wn
!!!SMS-shelfmark: SD XVI.Qu.273
!!!SMS-shelfwork: 001-074 G
!!!NIFC-rismSourceID: 990022100
!!!NIFC-rismChildID: 990022100
!!!NIFC-islandoraID: none
!!!URL-pdf-islandora:
!!!URL-scan: https://polona.pl/item-view/9e614fd4-ba4f-44ae-9d17-4f78b947e64f?page=176 @EN{Scan on Polona} @PL{Skany w portalu Polona}
!!!IIIF: https://polona.pl/api/search-index/search/iiif/9e614fd4-ba4f-44ae-9d17-4f78b947e64f/manifest.json
!!!ONB-nifc: Melodiae na psalterz polski
!!!AIN: 1 alto 1 bass 1 soprn 1 tenor
!!!key:
**kern	**text	**kern	**text	**kern	**text	**kern	**text
*part4	*part4	*part3	*part3	*part2	*part2	*part1	*part1
*staff4	*staff4	*staff3	*staff3	*staff2	*staff2	*staff1	*staff1
*Ibass	*	*Itenor	*	*Ialto	*	*Isoprn	*
*I"BASSVS.	*	*I"TENOR.	*	*I"ALTVS.	*	*I"CANTVS.	*
*clefF4	*	*clefC3	*	*clefC3	*	*clefC1	*
*k[b-]	*	*k[b-]	*	*k[b-]	*	*k[b-]	*
*d:	*	*d:	*	*d:	*	*d:	*
*M2/1	*	*M2/1	*	*M2/1	*	*M2/1	*
*met(C|)	*	*met(C|)	*	*met(C|)	*	*met(C|)	*
*MM300	*	*MM300	*	*MM300	*	*MM300	*
*>[A,A,B]	*	*>[A,A,B]	*	*>[A,A,B]	*	*>[A,A,B]	*
*>A	*	*>A	*	*>A	*	*>A	*
=1-	=1-	=1-	=1-	=1-	=1-	=1-	=1-
*xywh-78r:789,5230,4796,1235	*	*xywh-78r:844,3962,4740,1313	*	*xywh-78r:822,2771,4796,1179	*	*xywh-78r:700,1057,4907,1758	*
*	*^	*	*^	*	*^	*	*^
1D\	TAák-	I	1d\	TAk-	I	1f\	TAk-	I	1a\	TAk-	I
2D/	-że	sro-	2d\	-że	sro-	2f\	-że	sro-	2a\	-że	sro-
1AA/	nas	-(gim)	1c#X\	nas	-(gim)	1e\	nas	-(gim)	1a\	nas	-gim
=2-	=2-	=2-	=2-	=2-	=2-	=2-	=2-	=2-	=2-	=2-	=2-
.	.	.	.	.	.	.	.	.	.	.	.
2D/	iuż	wil-	2d\	iuż	wil-	2d\	iuż	wil-	2f/	iuż	wil-
2G\	ná	-(kom)	2d\	ná	-(kom)	4B-/	ná	-kom	2b-\	ná	-(kom)
.	.	.	.	.	.	4c/	.	.	.	.	.
2G\	wie-	drá-	2B-/	wie-	drá-	4d\	wie-	drá-	2b-\	wie-	drá-
.	.	.	.	.	.	4e\	.	.	.	.	.
=3-	=3-	=3-	=3-	=3-	=3-	=3-	=3-	=3-	=3-	=3-	=3-
2.F\	-(ki,)	-páć	1cny\	-(ki,)	-páć	2f\	-ki,	-(páć)	1a\	-(ki,)	-páć
.	.	.	.	.	.	2.f\	bo-	stá-	.	.	.
4E\	.	.	.	.	.	.	.	.	.	.	.
2D/	bo-	swé	2d\	bo-	swé	.	.	.	1dd\	bo-	stá-
.	.	.	.	.	.	4e\	.	.	.	.	.
2G\	-że	stá-	2B-/	-(że)	stá-	2d\	-że	-do	.	.	.
=4-	=4-	=4-	=4-	=4-	=4-	=4-	=4-	=4-	=4-	=4-	=4-
2A\	nász	-do	2A/	nasz	-(do)	2a\	nász	swé	2cc#X\	-że	-do
2F#X\	o-	do-	2d\	o-	do-	2a\	o-	do-	2dd\	nász,	swé
1G\	-pu-	-pu-	1d\	-pu-	-pu-	2.g\	-pu-	-pu-	2b-\	o-	do-
.	.	.	.	.	.	.	.	.	2b-\	-pu-	-pu-
.	.	.	.	.	.	4f\	.	.	.	.	.
=5-	=5-	=5-	=5-	=5-	=5-	=5-	=5-	=5-	=5-	=5-	=5-
1A\	-(śćisz?)	-(śćisz?)	1c#X\	-ś(ćisz)?	-śćisz?	1e\	-śćisz?	-śćisz?	1a\	-śćisz?	-(śćisz)?
*	*v	*v	*	*v	*v	*	*v	*v	*	*v	*v
=:|!	=:|!	=:|!	=:|!	=:|!	=:|!	=:|!	=:|!
*>B	*	*>B	*	*>B	*	*>B	*
1F\	Wsp(o-	1f\	Wsp(o-	1a\	Ws(po-	1cc\	Wspo-
=6-	=6-	=6-	=6-	=6-	=6-	=6-	=6-
2C/	-mni)	2e\	-mni)	2g\	-mni)	2cc\	-(mni)
1G\	ná	1d\	ná	1g\	ná	1b-\	ná
2D/	swé	2d\	sw(é)	2f\	sw(é)	2a\	sw(é)
=7-	=7-	=7-	=7-	=7-	=7-	=7-	=7-
1.AA/	dźie-	1.c#\	dźie-	1.e\	dźie-	1.a\	dźie-
!	!	!LO:SIC:s=2c#:v	!	!	!	!	!
2AA/	-dźic-	2cny/	-dźic-	2e\	-dźic-	2a\	-dźic-
!!LO:PB:g=original
=8-	=8-	=8-	=8-	=8-	=8-	=8-	=8-
*xywh-78v:1305,5237,4710,1211	*	*xywh-78v:1283,3892,5080,1323	*	*xywh-78v:1271,2669,5035,1233	*	*xywh-78v:1294,1043,5069,1682	*
2D/	-twoy,	2d\	-two,	2f\	-two,	2a\	-two,
2D/	y	4f\	y	2.d\	y	2f/	y
.	.	4e\	.	.	.	.	.
2BB-/	ná	2d\	ná	.	.	2b-\	ná
.	.	.	.	4e\	ná	.	.
2FF/	swóy	2c/	swóy	4f\	swóy	2a\	swóy
.	.	.	.	4e\	.	.	.
=9-	=9-	=9-	=9-	=9-	=9-	=9-	=9-
2GG/	lud	2B-/	lud	4d\	lud	2a\	lud
.	.	.	.	4c\	.	.	.
2GG/	wier-	2B-/	wier-	2d\	wier-	2g/	wier-
2D/	-(ny)	2A/	-(ny)	2d\	-(ny)	2a\	-(ny)
2F\	Z któ-	2A/	Z któ-	2c/	Z któ-	2a\	Z któ-
=10-	=10-	=10-	=10-	=10-	=10-	=10-	=10-
2D/	-(re-	2f\	-re-	2d\	-re-	2f/	-(re-
2C/	-goś)	2e\	-(goś)	2e\	-(goś)	2g/	-goś)
2F\	ty	2f\	ty	2a\	ty	2a\	ty
2G\	zdiął	2d\	zdiął	4g\	zdiął	2b-\	zdiął
.	.	.	.	4f\	.	.	.
=11-	=11-	=11-	=11-	=11-	=11-	=11-	=11-
1A\	iárz-	1c/	iárz-	1e\	iárz-	2.cc\	iárz-
.	.	.	.	.	.	4b-\	-(mo)
2A\	-(mo)	2c/	-mo	2e\	-(mo)	2a\	w ie-
2AA/	w ie-	4A/	w ie-	2f\	.	2a\	-(go)
.	.	4B/	.	.	.	.	.
=12-	=12-	=12-	=12-	=12-	=12-	=12-	=12-
2AA/	-(go)	2c/	-go	2e\	w ie-	2a\	cz(as)
2BB-/	cz(as)	1d\	czas	4d\	-go	2g/	mi_zer-
.	.	.	.	4e\	.	.	.
1AA/	mi-	.	.	2f\	czás	[1a\ll	-ny.
.	.	4c#X/	mi-	4e\	mi-	.	.
.	.	4B/	.	4d\	.	.	.
=13-	=13-	=13-	=13-	=13-	=13-	=13-	=13-
1AA/	-zer-	4c#X/	-zer-	4e\	-zer-	1.a]	.
.	.	2d\	.	2f\	.	.	.
!	!	!LO:SIC:s=4c#:v	!	!	!	!	!
!	!	!LO:N:vis=#	!	!	!	!	!
.	.	4Bn/	.	4e\	.	.	.
0D\ll	-ny.	0d\ll	-ny.	0f\ll	-ny.	.	.
==-	==-	==-	==-	==-	==-	==-	==-
*-	*-	*-	*-	*-	*-	*-	*-
!!!system-decoration: s1,s2,s3,s4
!!!RDF**kern: l = terminal long
!!!ENC: Marta Lawrence
!!!END: 2020-02-14
!!!ENC-iiif: Craig Stuart Sapp
!!!END: 2021-12-07
!!!YEC: Copyright 2022 Narodowy Instytut Fryderyka Chopina (https://polishscores.org)
!!!YEM: License CC-BY-4.0 (https://creativecommons.org/licenses/by/4.0)
